X: 40348
T: Tom Byrne's
R: reel
M: 4/4
K: Gmajor
|:B/_B/A GE G=BEF|GEDB, DB,A,B,|G,A,B,C DG G/A/G|EGcB A/B/A GA|
BAGE GBEF|GEDB, DB,A,B,|G,A,B,C DG G/G/G|1 EcBA G2 z A:|2 EcBA G3 z||
|:b2 gb afdf|gfeg fdBd|e/g/e ce d/e/d Bd|cAag fdga|
bagb af d2|gfeg fd B2|e/g/e ce d/e/d Bd|1 cAFA G2 ga:|2 cAFA G4||

